X: 10077
T: The MUCKERAM
C: Bob McQuillen 14 June 93
B: Bob's Note Book 10 #77
%R: jig
Z: 2020 John Chambers <jc:trillian.mit.edu>
M: 6/8
L: 1/8
K: Em
D \
| EGB A2A | Bde d2d | BdB AGA | B2G E2D |\
| EGB AGA | BdB A2B | GAB AGF | E3  E2 :|
|: B \
| e2g gfe | ded B2A | GAB AGA | Bde dBd |\
| egf ege | dBG A2d | BGE AFD | E3- E2 :|
%%begintext align
%% "Let the muckeram in!"
%% With thanks to my Mom (who came from Cape Breton
%% Island) , and Roger Whynot (who told me what a
%% "muckram" was!)
%%endtext
%%text It means "old fool", said affectionately, as of the family pet dog, "let the muckeram in!"

%%sep 1 1 500

%%sep 1 1 500

